symbolic/24x24/actions/debug-step-into.svg

<svg xmlns="http://www.w3.org/2000/svg" width="24" height="24" version="1.1">
 <defs>
  <style id="current-color-scheme" type="text/css">
   .ColorScheme-Text { color:#323a41; } .ColorScheme-Highlight { color:#4285f4; } .ColorScheme-NeutralText { color:#ff9800; } .ColorScheme-PositiveText { color:#4caf50; } .ColorScheme-NegativeText { color:#f44336; }
  </style>
 </defs>
 <g transform="matrix(1,0,0,1,4,4)">
  <path style="fill:currentColor" class="ColorScheme-Text" d="M 3,1 C 1,1 1,3 1,3 V 15 H 15 V 3 C 15,1 13,1 13,1 H 11 V 5 H 13 L 13.004,13 H 3 V 5 H 5 V 1 Z M 6,1 8,4 10,1 Z M 6.4277,6 C 5.3622,6 4.9238,6.3523 4.9238,7.2539 4.9238,7.2539 4.8994,7.8413 4.8926,8 4.8464,8.3689 4.7172,8.6777 4.3145,8.6777 H 4 V 9.3223 H 4.3145 C 4.903,9.3223 4.9238,9.9665 4.9238,10.523 4.9188,10.697 4.9374,10.892 4.9414,11 5.0247,11.712 5.4705,12 6.4277,12 V 11.408 C 5.9782,11.408 5.8292,11.29 5.7656,11 5.7319,10.884 5.7284,10.486 5.7148,10.295 5.7148,9.8795 5.5928,9.2602 4.9941,9.0039 5.4672,8.8013 5.6363,8.3756 5.6895,8 5.7134,7.8959 5.708,7.7777 5.7148,7.6973 5.7148,6.831 5.7175,6.5918 6.4277,6.5918 Z M 9.5723,6 V 6.5918 C 10.283,6.5918 10.299,6.8309 10.299,7.6973 10.306,7.7777 10.301,7.8959 10.324,8 10.377,8.3756 10.548,8.8013 11.021,9.0039 10.423,9.2603 10.299,9.8795 10.299,10.295 10.285,10.486 10.282,10.884 10.248,11 10.185,11.29 10.022,11.408 9.5723,11.408 V 12 C 10.53,12 10.991,11.712 11.074,11 11.078,10.892 11.097,10.697 11.092,10.523 11.092,9.9665 11.111,9.3223 11.699,9.3223 H 12 V 8.6777 H 11.699 C 11.296,8.6777 11.169,8.3689 11.123,8 11.116,7.8413 11.092,7.2539 11.092,7.2539 11.092,6.3522 10.638,6 9.5723,6 Z"/>
 </g>
</svg>

<svg xmlns="http://www.w3.org/2000/svg" width="24" height="24"><defs><style id="current-color-scheme" type="text/css"></style></defs><path style="fill:currentColor;color:#323a41" d="M3 1C1 1 1 3 1 3v12h14V3c0-2-2-2-2-2h-2v4h2l.004 8H3V5h2V1zm3 0 2 3 2-3zm.428 5c-1.066 0-1.504.352-1.504 1.254L4.893 8c-.047.369-.176.678-.579.678H4v.644h.314c.589 0 .61.645.61 1.201-.005.174.013.369.017.477.084.712.53 1 1.487 1v-.592c-.45 0-.599-.118-.662-.408-.034-.116-.038-.514-.051-.705 0-.415-.122-1.035-.72-1.291.472-.203.641-.628.694-1.004.024-.104.019-.222.026-.303 0-.866.003-1.105.713-1.105zm3.144 0v.592c.711 0 .727.239.727 1.105.007.08.002.199.025.303.053.376.224.801.697 1.004-.598.256-.722.876-.722 1.291-.014.191-.017.589-.051.705-.063.29-.226.408-.676.408V12c.958 0 1.419-.288 1.502-1 .004-.108.023-.303.018-.477 0-.556.019-1.2.607-1.2H12v-.645h-.301c-.403 0-.53-.31-.576-.678a446.43 446.43 0 0 1-.031-.746c0-.902-.454-1.254-1.52-1.254z" transform="translate(4 4)"/></svg>
